packages/icons/svgs/duotone/Source=account.svg

<svg width="24" height="24" viewBox="0 0 24 24" fill="none" xmlns="http://www.w3.org/2000/svg">
<path fill-rule="evenodd" clip-rule="evenodd" d="M12 2C9.79128 2 8 3.79128 8 6V7C8 9.20872 9.79128 11 12 11C14.2087 11 16 9.20872 16 7V6C16 3.79128 14.2087 2 12 2ZM6 6C6 2.68672 8.68672 0 12 0C15.3133 0 18 2.68672 18 6V7C18 10.3133 15.3133 13 12 13C8.68672 13 6 10.3133 6 7V6Z" fill="black" style="fill:black;fill-opacity:1;"/>
<path opacity="0.55" fill-rule="evenodd" clip-rule="evenodd" d="M4.67126 16.0871C6.60818 15.5585 9.28977 15 12 15C14.7102 15 17.3918 15.5585 19.3287 16.0871M4.67126 16.0871C2.49464 16.6801 1 18.662 1 20.908V24H23V20.908C23 18.662 21.5054 16.6801 19.3287 16.0871M12 17C9.53851 17 7.04837 17.5114 5.19733 18.0167C3.90027 18.3699 3 19.5542 3 20.908V22H21V20.908C21 19.5542 20.1003 18.3701 18.8033 18.0169C16.9522 17.5116 14.4615 17 12 17Z" fill="black" style="fill:black;fill-opacity:1;"/>
</svg>

<svg xmlns="http://www.w3.org/2000/svg" width="24" height="24" viewBox="0 0 24 24"><path fill-rule="evenodd" d="M12 2a4 4 0 0 0-4 4v1a4 4 0 0 0 8 0V6a4 4 0 0 0-4-4M6 6a6 6 0 0 1 12 0v1A6 6 0 0 1 6 7z" clip-rule="evenodd"/><path fill-rule="evenodd" d="M4.671 16.087C6.608 15.56 9.29 15 12 15s5.392.559 7.329 1.087m-14.658 0A4.99 4.99 0 0 0 1 20.908V24h22v-3.092a4.99 4.99 0 0 0-3.671-4.82M12 17c-2.461 0-4.952.511-6.803 1.017A2.99 2.99 0 0 0 3 20.908V22h18v-1.092a2.99 2.99 0 0 0-2.197-2.891C16.953 17.512 14.461 17 12 17" clip-rule="evenodd" opacity=".55"/></svg>
